packages/bpk-svgs/src/icons/sm/picture.svg

<svg xmlns="http://www.w3.org/2000/svg" viewBox="0 0 18 18" enable-background="new 0 0 18 18"><path d="M15.5 3h-13c-.828 0-1.5.672-1.5 1.5v9c0 .828.672 1.5 1.5 1.5h13c.828 0 1.5-.672 1.5-1.5v-9c0-.828-.672-1.5-1.5-1.5zm-8.5 3.5c0 .829-.672 1.5-1.501 1.5-.829 0-1.5-.672-1.5-1.501s.672-1.5 1.501-1.5 1.5.672 1.5 1.501zm9 7c0 .276-.224.5-.5.5h-13c-.276 0-.5-.224-.5-.5v-4.5l2.833 2.833-1.166 1.167h1l.667-.667 6.166-6.166c.52-.521 1.364-.521 1.885-.001l.001.001 2.614 2.616v4.717z"/></svg>

<svg xmlns="http://www.w3.org/2000/svg" viewBox="0 0 18 18"><path d="M15.5 3h-13A1.5 1.5 0 0 0 1 4.5v9A1.5 1.5 0 0 0 2.5 15h13a1.5 1.5 0 0 0 1.5-1.5v-9A1.5 1.5 0 0 0 15.5 3zM7 6.5a1.5 1.5 0 1 1-3 0 1.5 1.5 0 0 1 3 0zm9 7a.5.5 0 0 1-.5.5h-13a.5.5 0 0 1-.5-.5V9l2.833 2.833L3.667 13h1l.667-.667L11.5 6.167a1.333 1.333 0 0 1 1.885-.001l.001.001L16 8.783V13.5z"/></svg>
